X: 14868
T: Garron Trotting, The
R: strathspey
M: 4/4
K: Dmajor
|:A<F F>E F>E F>B|A<F F>D E>D E>B|A<F F>A d>e f>e|f/e/d/B/ d>F E>D E>B:|
|:A<F d>F A<F d>F|A<F d>A B>A B<d|A<F F>A d>e f>e|f/e/d/B/ d>F E>D E>B:|

